X: 42978
T: Willie Murray's
R: reel
M: 4/4
K: Bminor
|:d2Bc dBBc|dBBc dBfe|d2Bc dBBd|cAAB cdec:|
|:daga fdde|fdde fgaf|1 daga fdde|
cAAB cdec:|2 afge fdec|gfed cdef||
|:g2ef geef|geef geba|g2ef geeg|fdde fgaf:|
|:daga fdde|fdde fgaf|1 daga fdde|
cAAB cdec:|2 afge fdec|gfed cdec||

